X:246
T:Reel 246
M:4/4
K:Ador
L:1/8
ABcA GEDE|CEDB, CA,A,2|AGAB GEFE||CA,B,G, A,2A,2:||2CFEF G2A2|ABcd e2ec|cABc d2cB|ABcd e2ed|cABG A2A2|ABcd e2ed|cdec d2cd|ecdB cAB^G|AGED E2A,2|
